public/images/facebook-icon.svg

<svg width="40" height="40" viewBox="0 0 40 40" fill="none" xmlns="http://www.w3.org/2000/svg">
<path d="M40 20.1222C40 9.00902 31.0458 0 20 0C8.9543 0 0 9.00902 0 20.1222C0 30.1656 7.31368 38.4904 16.875 40V25.9388H11.7969V20.1222H16.875V15.689C16.875 10.6459 19.861 7.86024 24.4292 7.86024C26.6176 7.86024 28.9062 8.25326 28.9062 8.25326V13.2052H26.3844C23.9 13.2052 23.125 14.7564 23.125 16.3478V20.1222H28.6718L27.7852 25.9388H23.125V40C32.6864 38.4904 40 30.166 40 20.1222Z" fill="#080604"/>
</svg>

<svg xmlns="http://www.w3.org/2000/svg" width="40" height="40" fill="none"><path fill="#080604" d="M40 20.122C40 9.01 31.046 0 20 0S0 9.009 0 20.122C0 30.166 7.314 38.49 16.875 40V25.939h-5.078v-5.817h5.078V15.69c0-5.043 2.986-7.829 7.554-7.829 2.189 0 4.477.393 4.477.393v4.952h-2.522c-2.484 0-3.259 1.551-3.259 3.143v3.774h5.547l-.887 5.817h-4.66V40C32.686 38.49 40 30.166 40 20.122"/></svg>
